img/enjoy-the-ride.svg

<svg width="96" height="96" viewBox="0 0 96 96" fill="none" xmlns="http://www.w3.org/2000/svg">
<g id="Group 10">
<circle id="Oval Copy 4" cx="48" cy="48" r="48" fill="#FCB72B"/>
<path id="Combined Shape" fill-rule="evenodd" clip-rule="evenodd" d="M64.1713 46H66C66.3682 46 66.6667 45.7015 66.6667 45.3333V40C66.6667 39.6318 66.3682 39.3333 66 39.3333H59.7453L58.6667 37.176V34.6667C58.6667 34.2985 58.3682 34 58 34H54C53.6318 34 53.3333 34.2985 53.3333 34.6667V37.3333C53.3333 37.7015 53.6318 38 54 38H57.588L58.6667 40.1573V44C58.6667 42.8954 57.7712 42 56.6667 42C55.5621 42 54.6667 42.8954 54.6667 44V42.6667C54.6667 42.2985 54.3682 42 54 42H48.7487L46.6667 41.4793V30.6667C46.6667 29.1939 45.4728 28 44 28H41.3333C39.8606 28 38.6667 29.1939 38.6667 30.6667V38H35.3333C34.2288 38 33.3333 38.8954 33.3333 40V42H28.6667C28.3971 42.0001 28.154 42.1625 28.0509 42.4116C27.9477 42.6606 28.0047 42.9473 28.1953 43.138L29.724 44.6667L28.1953 46.1953C28.0047 46.386 27.9477 46.6727 28.0509 46.9218C28.154 47.1708 28.3971 47.3333 28.6667 47.3333H35.3333C36.4379 47.3333 37.3333 46.4379 37.3333 45.3333V43.3333H38.6667V50H36.6667C34.3489 50.0027 32.3844 51.706 32.0533 54H30C29.6318 54 29.3333 54.2985 29.3333 54.6667V57.3333C29.3333 57.7015 29.6318 58 30 58H32V59.3333H28.6667C28.2985 59.3333 28 59.6318 28 60V62.6667C28 63.0349 28.2985 63.3333 28.6667 63.3333H36C36 65.9107 38.0893 68 40.6667 68C43.244 68 45.3333 65.9107 45.3333 63.3333H57.3333C57.3333 65.9107 59.4227 68 62 68C64.5773 68 66.6667 65.9107 66.6667 63.3333H67.3333C67.5366 63.3335 67.7288 63.2409 67.8554 63.0818C67.982 62.9228 68.0291 62.7147 67.9833 62.5167L64.1713 46ZM54.6667 44C54.6667 45.1046 55.5621 46 56.6667 46C57.7712 46 58.6667 45.1046 58.6667 44V58H56.6667V57.3333C56.6667 56.2288 55.7712 55.3333 54.6667 55.3333V48C54.6667 47.6318 54.3682 47.3333 54 47.3333H46.6667V45.5207L48.5047 45.98C48.5576 45.9933 48.6121 46 48.6667 46H54C54.3682 46 54.6667 45.7015 54.6667 45.3333V44ZM57.3333 36.6667H54.6667V35.3333H57.3333V36.6667ZM32 62V60.6667H29.3333V62H32ZM32 56.6667H30.6667V55.3333H32V56.6667ZM65.3333 40.6667H64V44.6667H65.3333V40.6667ZM60 40.6667H62.6667V44.6667H60V40.6667ZM55.3333 57.3333C55.3333 56.9651 55.0349 56.6667 54.6667 56.6667H52V58H55.3333V57.3333ZM48.5047 43.3133C48.5576 43.3266 48.6121 43.3333 48.6667 43.3333H53.3333V44.6667H48.7487L44 43.4793V42.1873L48.5047 43.3133ZM41.3333 29.3333C40.597 29.3333 40 29.9303 40 30.6667V33.3333H42V32C42 31.6318 42.2985 31.3333 42.6667 31.3333H45.3333V30.6667C45.3333 29.9303 44.7364 29.3333 44 29.3333H41.3333ZM40 34.6667H42.6667C43.0349 34.6667 43.3333 34.3682 43.3333 34V32.6667H45.3333V34.1707L40 35.7707V34.6667ZM45.3333 38.6667V35.5627L40 37.1627V38.6667H45.3333ZM45.3333 40V41.146L43.4953 40.6867C43.2961 40.6368 43.0851 40.6814 42.9232 40.8078C42.7613 40.9341 42.6667 41.128 42.6667 41.3333V44C42.6667 44.3058 42.8747 44.5724 43.1713 44.6467L45.3333 45.1873V47.3333H40V40H45.3333ZM53.3333 55.3333V48.6667H40V50H51.3333C51.7015 50 52 50.2985 52 50.6667V55.3333H53.3333ZM36 45.3333C36 45.7015 35.7015 46 35.3333 46H30.276L31.138 45.138C31.3983 44.8777 31.3983 44.4557 31.138 44.1953L30.276 43.3333H36V45.3333ZM34.6667 40V42H38.6667V39.3333H35.3333C34.9651 39.3333 34.6667 39.6318 34.6667 40ZM40.6667 66.6667C38.8266 66.6645 37.3355 65.1734 37.3333 63.3333H38.6667C38.6667 64.4379 39.5621 65.3333 40.6667 65.3333C41.7712 65.3333 42.6667 64.4379 42.6667 63.3333H44C43.9978 65.1734 42.5067 66.6645 40.6667 66.6667ZM40.6667 64C41.0349 64 41.3333 63.7015 41.3333 63.3333H40C40 63.7015 40.2985 64 40.6667 64ZM45.3333 62H36V55.3333C36 54.9651 36.2985 54.6667 36.6667 54.6667H44.6667C45.0349 54.6667 45.3333 54.9651 45.3333 55.3333V62ZM46.6667 62H48V54.6667C47.9978 52.8266 46.5067 51.3355 44.6667 51.3333H36.6667C34.8266 51.3355 33.3355 52.8266 33.3333 54.6667V62H34.6667V55.3333C34.6667 54.2288 35.5621 53.3333 36.6667 53.3333H44.6667C45.7712 53.3333 46.6667 54.2288 46.6667 55.3333V62ZM47.9267 51.3333H50.6667V58H49.3333V54.6667C49.3335 53.4113 48.8262 52.2091 47.9267 51.3333ZM62 66.6667C60.16 66.6645 58.6689 65.1734 58.6667 63.3333H60C60 64.4379 60.8954 65.3333 62 65.3333C63.1046 65.3333 64 64.4379 64 63.3333H65.3333C65.3311 65.1734 63.84 66.6645 62 66.6667ZM62 64C62.3682 64 62.6667 63.7015 62.6667 63.3333H61.3333C61.3333 63.7015 61.6318 64 62 64ZM60 62V57.3333H61.3333V56H60V46H62.8L66.492 62H60ZM49.3333 62H58.6667V59.3333H49.3333V62ZM64 56H62.6667V57.3333H64V56ZM37.3333 56H38.6667V57.3333H37.3333V56ZM41.3333 56H40V57.3333H41.3333V56ZM42.6667 56H44V57.3333H42.6667V56ZM56.6667 43.3333C57.0349 43.3333 57.3333 43.6318 57.3333 44C57.3333 44.3682 57.0349 44.6667 56.6667 44.6667C56.2985 44.6667 56 44.3682 56 44C56 43.6318 56.2985 43.3333 56.6667 43.3333ZM28 32.6667H36.6667V34H28V32.6667ZM37.3333 35.3333H29.3333V36.6667H37.3333V35.3333Z" fill="#495567"/>
</g>
</svg>

<svg xmlns="http://www.w3.org/2000/svg" width="96" height="96" fill="none"><circle cx="48" cy="48" r="48" fill="#FCB72B"/><path fill="#495567" fill-rule="evenodd" d="M64.171 46H66a.667.667 0 0 0 .667-.667V40a.667.667 0 0 0-.667-.667h-6.255l-1.078-2.157v-2.51A.667.667 0 0 0 58 34h-4a.667.667 0 0 0-.667.667v2.666c0 .369.299.667.667.667h3.588l1.079 2.157V44a2 2 0 0 0-4 0v-1.333A.667.667 0 0 0 54 42h-5.251l-2.082-.52V30.666A2.667 2.667 0 0 0 44 28h-2.667a2.667 2.667 0 0 0-2.666 2.667V38h-3.334a2 2 0 0 0-2 2v2h-4.666a.667.667 0 0 0-.472 1.138l1.529 1.529-1.529 1.528a.667.667 0 0 0 .472 1.138h6.666a2 2 0 0 0 2-2v-2h1.334V50h-2a4.667 4.667 0 0 0-4.614 4H30a.667.667 0 0 0-.667.667v2.666c0 .369.299.667.667.667h2v1.333h-3.333A.667.667 0 0 0 28 60v2.667c0 .368.299.666.667.666H36a4.667 4.667 0 1 0 9.333 0h12a4.667 4.667 0 1 0 9.334 0h.666a.666.666 0 0 0 .65-.816L64.171 46Zm-9.504-2a2 2 0 1 0 4 0v14h-2v-.667a2 2 0 0 0-2-2V48a.667.667 0 0 0-.667-.667h-7.333v-1.812l1.838.459c.053.013.107.02.162.02H54a.667.667 0 0 0 .667-.667V44Zm2.666-7.333h-2.666v-1.334h2.666v1.334ZM32 62v-1.333h-2.667V62H32Zm0-5.333h-1.333v-1.334H32v1.334Zm33.333-16H64v4h1.333v-4Zm-5.333 0h2.667v4H60v-4Zm-4.667 16.666a.667.667 0 0 0-.666-.666H52V58h3.333v-.667Zm-6.828-14.02c.053.014.107.02.162.02h4.666v1.334H48.75L44 43.479v-1.292l4.505 1.126Zm-7.172-13.98c-.736 0-1.333.597-1.333 1.334v2.666h2V32c0-.368.298-.667.667-.667h2.666v-.666c0-.737-.597-1.334-1.333-1.334h-2.667ZM40 34.667h2.667a.667.667 0 0 0 .666-.667v-1.333h2v1.504L40 35.77v-1.104Zm5.333 4v-3.104L40 37.163v1.504h5.333Zm0 1.333v1.146l-1.838-.46a.666.666 0 0 0-.828.647V44c0 .306.208.572.504.647l2.162.54v2.146H40V40h5.333Zm8 15.333v-6.666H40V50h11.333c.369 0 .667.298.667.667v4.666h1.333ZM36 45.333a.667.667 0 0 1-.667.667h-5.057l.862-.862a.667.667 0 0 0 0-.943l-.862-.862H36v2ZM34.667 40v2h4v-2.667h-3.334a.667.667 0 0 0-.666.667Zm6 26.667a3.337 3.337 0 0 1-3.334-3.334h1.334a2 2 0 1 0 4 0H44a3.337 3.337 0 0 1-3.333 3.334Zm0-2.667a.667.667 0 0 0 .666-.667H40c0 .369.298.667.667.667Zm4.666-2H36v-6.667c0-.368.298-.666.667-.666h8c.368 0 .666.298.666.666V62Zm1.334 0H48v-7.333a3.337 3.337 0 0 0-3.333-3.334h-8a3.337 3.337 0 0 0-3.334 3.334V62h1.334v-6.667a2 2 0 0 1 2-2h8a2 2 0 0 1 2 2V62Zm1.26-10.667h2.74V58h-1.334v-3.333a4.651 4.651 0 0 0-1.406-3.334ZM62 66.667a3.337 3.337 0 0 1-3.333-3.334H60a2 2 0 1 0 4 0h1.333A3.337 3.337 0 0 1 62 66.667ZM62 64a.667.667 0 0 0 .667-.667h-1.334c0 .369.299.667.667.667Zm-2-2v-4.667h1.333V56H60V46h2.8l3.692 16H60Zm-10.667 0h9.334v-2.667h-9.334V62ZM64 56h-1.333v1.333H64V56Zm-26.667 0h1.334v1.333h-1.334V56Zm4 0H40v1.333h1.333V56Zm1.334 0H44v1.333h-1.333V56Zm14-12.667a.667.667 0 1 1 0 1.334.667.667 0 0 1 0-1.334ZM28 32.667h8.667V34H28v-1.333Zm9.333 2.666h-8v1.334h8v-1.334Z" clip-rule="evenodd"/></svg>
